static/images/mobile/copyright/wikipedia-wordmark-uk.svg

<?xml version="1.0" encoding="UTF-8"?>
<svg width="120px" height="22px" viewBox="0 0 120 22" version="1.1" xmlns="http://www.w3.org/2000/svg" xmlns:xlink="http://www.w3.org/1999/xlink">
    <title>wikipedia-wordmark-uk</title>
    <g id="Page-1" stroke="none" stroke-width="1" fill="none" fill-rule="evenodd">
        <path d="M92.8361641,5.51907997 L92.8801793,5.55987457 L92.8801793,5.95601161 C92.8801793,6.0805425 92.7942959,6.11704293 92.7062655,6.12348418 L92.0750227,6.16320524 C91.4237405,6.20729203 91.2877394,6.44215442 91.2725005,7.08512694 L91.2709397,17.3988969 C91.2709397,18.1166365 91.6930389,18.3659941 92.0593343,18.4478078 L92.1426559,18.4638507 C92.6128673,18.5422193 92.7814134,18.6119995 92.7942959,18.8610613 L92.9456654,21.951789 L92.4318413,21.9625244 C92.3584378,21.9678921 92.3584378,21.9642857 92.3584378,21.9642857 L92.2858069,21.6822723 C91.967136,20.5315993 91.1758238,19.0296074 89.5758167,19.0296074 L83.273051,19.0296074 C81.4673531,19.0296074 80.9037435,20.8879088 80.6632701,21.9732599 L80.0760426,21.951789 L80.2284855,18.8610613 C80.2435151,18.6119995 80.4711061,18.4949834 80.6858145,18.4638507 L80.9908514,18.414602 C81.282771,18.3594487 81.5374018,18.2741021 81.7733126,18.0462428 C82.3401429,17.501957 82.7298387,15.998998 83.4254939,12.7418713 L83.5847322,11.912047 C83.9601551,9.86637574 84.1640909,8.05585997 84.1640909,6.8964345 C84.1640909,6.45735578 83.9676327,6.24050027 83.4029496,6.18682317 L82.7513095,6.12348418 C82.6418082,6.12348418 82.5784692,6.0805425 82.5784692,5.99787975 L82.5784692,5.55987457 L82.6214109,5.51907997 L84.3988479,5.55675405 C84.4959599,5.55802608 84.5873695,5.55896755 84.6698298,5.55946771 L90.8686248,5.55685275 C91.6433395,5.54740956 92.8361641,5.51907997 92.8361641,5.51907997 Z M120,0.0289856369 L120,0.646272349 C120,0.763288438 119.940955,0.850245349 119.798174,0.850245349 L118.928605,0.910363707 L118.589472,0.941019776 C117.649555,1.04774489 117.391293,1.3054272 117.391293,2.20398195 L117.391293,16.8793026 C117.391293,17.7127291 117.728358,18.0482176 118.766048,18.1570805 L119.739129,18.2351862 C119.852925,18.2351862 119.971014,18.3221431 119.971014,18.4692184 L119.971014,19.0285339 L119.913043,19.0886522 L116.742754,19.0311171 C116.565789,19.0294732 116.402963,19.0285339 116.261926,19.0285339 L114.29619,19.0532084 C113.369613,19.0697991 112.524926,19.0886522 112.524926,19.0886522 L112.465881,19.0285339 L112.465881,18.4692184 C112.465881,18.3221431 112.552838,18.2351862 112.69884,18.2351862 L113.451393,18.1739943 C114.669863,18.0805962 115.04453,17.7037829 115.04453,16.8793026 L115.04453,9.49762702 C112.148634,9.49762702 111.467802,10.2563409 110.37995,12.9570349 L109.945148,14.0580986 C108.792803,16.9477576 107.729682,19.0273261 105.801332,19.0575195 L103.88828,19.0854316 L103.861441,19.0263868 L103.861441,18.4670713 L103.858758,18.4659978 L103.866342,18.3997414 C103.884751,18.3155478 103.937673,18.2600616 104.006658,18.2412349 L104.321991,18.2040535 C105.221424,18.0916244 106.600353,16.582096 108.040798,12.9070516 L108.176007,12.5561485 C108.901722,10.6452435 109.770217,9.90879365 110.553903,9.43965575 L110.553903,9.3516253 C108.581806,9.0585483 106.236117,7.58672207 106.236117,4.58724543 L106.241275,4.3365028 C106.323903,2.3559939 107.441595,0.0289856369 112.61081,0.0289856369 L115.982796,0.057159676 L115.982796,0.057159676 L120,0.0289856369 L120,0.0289856369 Z M7.48956651,0 C12.8798214,0 13.7193314,2.55825084 13.7193314,4.52712707 C13.7193314,6.12563127 12.4192719,7.63503147 10.9678429,8.38114323 L10.9678429,8.44018805 C13.4895934,9.17663793 15.4305575,10.7923188 15.4305575,13.6168081 C15.4305575,16.1439262 13.8932452,19.0886522 8.12725052,19.0886522 L6.5542094,19.0792587 C5.29424,19.0623504 4.83228141,19.0285339 3.89749462,19.0285339 L2.98988177,19.0325335 C2.00625802,19.0415224 1.23427522,19.0644379 0.130435366,19.0886522 C-0.0434784554,18.9115178 -0.0434784554,18.2931575 0.130435366,18.1170966 L0.493123809,18.0993533 C2.2190996,18.0017202 2.65218578,17.7294137 2.65218578,15.4407561 L2.65218578,3.64682254 L2.64615654,3.21561873 C2.58459037,1.18850337 2.03261779,1.05401706 0.130435366,0.970482065 C-0.0434784554,0.795494702 -0.0434784554,0.177134448 0.130435366,0.00107354211 L1.99987475,0.0410629856 C2.57220689,0.0523351777 3.14440483,0.060118358 3.86850898,0.060118358 C5.11381783,0.0590448159 6.47506922,0 7.48956651,0 Z M63.4672726,5.51907997 C63.5993183,5.64253732 63.5993183,6.08161604 63.4672726,6.20722047 L63.1480573,6.22280125 C61.8941461,6.29570154 61.5756914,6.50212646 61.5756914,8.10846354 L61.5756914,16.4831655 L61.5821217,16.8420638 C61.6370232,18.231219 62.0597396,18.3257614 63.4672726,18.3844086 C63.5993183,18.5078659 63.5993183,18.9480182 63.4672726,19.0725491 L61.7423505,19.0390009 C61.4091918,19.0344719 61.0578416,19.0317545 60.6427833,19.0317545 L59.8006756,19.0366496 C59.1569572,19.0442864 58.6139421,19.0595132 57.8386914,19.0725491 C57.7077192,18.9490917 57.7077192,18.5089395 57.8386914,18.3844086 L58.1581112,18.369016 C59.3625531,18.2995933 59.7033705,18.1049465 59.7287087,16.6691811 L59.7302725,7.94206451 C59.7302725,6.64844627 59.2536198,6.39831096 58.7286578,6.39831096 L54.4473718,6.39831096 C53.9256304,6.39831096 53.4468306,6.64629919 53.4468306,7.94206451 L53.4468306,16.4831655 L53.4532281,16.8420638 C53.5078679,18.231219 53.9288908,18.3257614 55.3384118,18.3844086 C55.4693839,18.5078659 55.4693839,18.9480182 55.3384118,19.0725491 L53.7519982,19.0410502 C53.3819361,19.0353037 52.9999303,19.0317545 52.5343198,19.0317545 L51.7751913,19.0355622 C51.0743025,19.0427583 50.5074723,19.0588614 49.708757,19.0725491 C49.5777848,18.9490917 49.5777848,18.5089395 49.708757,18.3844086 L50.0281768,18.369016 C51.2326188,18.2995933 51.5734361,18.1049465 51.5987743,16.6691811 L51.6003382,8.10846354 C51.6003382,6.37576658 51.2310397,6.27055945 49.708757,6.20722047 C49.5777848,6.08268958 49.5777848,5.64361086 49.708757,5.51907997 L52.3850579,5.55953937 L52.3850579,5.55953937 L61.0001138,5.55819468 C61.6265952,5.55277727 62.563708,5.53518311 63.4672726,5.51907997 Z M36.3195398,5.43534369 C37.4703769,5.43534369 37.8632934,6.04082144 37.8632934,6.52069476 C37.8632934,7.12724605 37.3630227,7.35698406 36.9067673,7.35698406 C36.6233522,7.35698406 36.3195398,7.25285048 36.1026843,7.04350977 C35.8622109,6.81269821 35.688297,6.70749109 35.4081026,6.70749109 C34.8433478,6.70749109 34.6543519,7.2267801 34.5413142,7.75800309 L34.4254289,8.3501531 C34.165645,9.5999017 33.6540281,11.142807 32.1445346,11.677991 L32.1445346,11.7831982 C33.5728568,11.7831982 34.411096,12.5972401 34.9940313,13.9378404 L35.0795987,14.1428437 C36.2121856,16.9608918 37.317934,18.3822615 38.0790753,18.4434534 L38.426903,18.4659978 C38.5353307,18.4659978 38.5997432,18.5293368 38.5997432,18.6313233 L38.5997432,19.0285339 L38.5771989,19.0693285 L36.8595315,19.0478576 C35.2889791,19.0279772 34.5025985,17.575971 33.6524383,15.5389381 L33.2816307,14.6400843 C32.531692,12.86238 32.0212203,12.261998 29.7086675,12.261998 L29.7086675,17.5459722 C29.7086675,18.1291203 29.9938957,18.329782 30.7371724,18.4071877 L31.4692766,18.4627772 C31.5551599,18.4627772 31.6421168,18.5271897 31.6421168,18.6291762 L31.6421168,19.0263868 L31.5981016,19.0671814 L30.8792478,19.043597 C30.4334929,19.0321235 30.0366514,19.028299 29.5804296,19.0270242 L27.9843054,19.0273382 L27.3428196,19.0322498 C26.9212483,19.0375798 26.498112,19.0477554 25.9909912,19.0671814 L25.946976,19.0263868 L25.9480495,18.6313233 C25.9480495,18.5271897 26.0146091,18.4649242 26.1004925,18.4649242 L26.68772,18.4241296 C27.6013044,18.35757 27.8621751,18.1310527 27.8621751,17.5481193 L27.8621751,7.04350977 C27.8621751,6.41656118 27.5347447,6.22869131 26.68772,6.16535232 L26.1230369,6.12563127 C26.03608,6.12563127 25.9491231,6.06121874 25.9491231,5.9581587 L25.9491231,5.56202166 L25.9931383,5.52122706 L27.592572,5.55272597 C27.8422848,5.55655692 28.0970555,5.55941136 28.3771154,5.56088865 L28.8187011,5.56202166 C29.9051257,5.56202166 30.5363685,5.54055082 31.6013222,5.52122706 L31.6453375,5.56202166 L31.6453375,5.9581587 C31.6453375,6.06443936 31.5798514,6.12563127 31.4714237,6.12563127 L30.907814,6.16535232 C30.0371714,6.23191193 29.7118881,6.45842932 29.7118881,7.04350977 L29.7118881,11.3859876 C30.4945003,11.3859876 31.4724972,11.3645167 31.9942387,11.0735868 C33.2058502,10.4429405 33.5451127,9.21476856 33.7427608,8.09629194 L33.7763186,7.90019637 C33.9942476,6.60657813 34.602946,5.43534369 36.3195398,5.43534369 Z M101.316073,5.51478581 C101.445972,5.63931669 101.445972,6.07839541 101.316073,6.20507338 L100.996653,6.22043327 C99.7922114,6.28960466 99.4513941,6.48268058 99.4260558,7.92007967 L99.424492,16.4799449 C99.424492,18.2137154 99.794864,18.3199961 101.316073,18.381188 C101.445972,18.5035718 101.445972,18.9447976 101.316073,19.0693285 L99.7298599,19.0381676 C99.359948,19.0322803 98.9782052,19.0285339 98.5130547,19.0285339 L97.7533056,19.0321906 C97.0519639,19.0391351 96.4851337,19.0548356 95.6864184,19.0693285 C95.5565198,18.9458711 95.5565198,18.5046453 95.6864184,18.381188 L96.0060428,18.3655908 C97.2613856,18.2925596 97.5779995,18.085288 97.5779995,16.4799449 L97.5779995,8.10631645 L97.571602,7.74699275 C97.5169623,6.35627494 97.0959394,6.26272657 95.6864184,6.20507338 C95.5565198,6.07946895 95.5565198,5.64039023 95.6864184,5.51478581 L97.2729696,5.54792477 C97.5194837,5.55196229 97.7712309,5.55497321 98.0494942,5.55653188 L98.4894368,5.55772749 C99.5984058,5.55772749 100.251119,5.53518311 101.316073,5.51478581 Z M46.6641916,5.51478581 C46.7940902,5.63931669 46.7940902,6.07839541 46.6641916,6.20507338 L46.3447549,6.22043327 C45.1401821,6.28960466 44.7985113,6.48268058 44.7731049,7.92007967 L44.7715368,16.4799449 C44.7747574,18.2137154 45.1429824,18.3199961 46.6641916,18.381188 C46.7940902,18.5035718 46.7940902,18.9447976 46.6641916,19.0693285 L45.0769893,19.0381676 C44.7069928,19.0322803 44.32525,19.0285339 43.8600996,19.0285339 L43.1005182,19.0321906 C42.3994784,19.0391351 41.8332521,19.0548356 41.0345367,19.0693285 C40.9035646,18.9458711 40.9035646,18.5046453 41.0345367,18.381188 L41.3539734,18.3655908 C42.5585462,18.2954809 42.900217,18.1016549 42.9256234,16.6659562 L42.9271915,8.10631645 C42.9271915,6.37147241 42.5568195,6.26733882 41.0345367,6.20507338 C40.9035646,6.07946895 40.9035646,5.64039023 41.0345367,5.51478581 L42.621739,5.54792477 C42.8684033,5.55196229 43.1202882,5.55497321 43.3986267,5.55653188 L43.8386287,5.55772749 C44.9475977,5.55772749 45.5992378,5.53518311 46.6641916,5.51478581 Z M23.5347269,5.51478581 C23.665699,5.63931669 23.665699,6.07839541 23.5347269,6.20507338 L23.2152902,6.22043327 C22.0107174,6.28960466 21.6690466,6.48268058 21.6436402,7.92007967 L21.6420721,16.4799449 C21.6431457,18.2137154 22.0135177,18.3199961 23.5347269,18.381188 C23.665699,18.5035718 23.665699,18.9447976 23.5347269,19.0693285 L21.9475246,19.0381676 C21.5775281,19.0322803 21.1957853,19.0285339 20.7306349,19.0285339 L19.9710535,19.0321906 C19.2700137,19.0391351 18.7037874,19.0548356 17.905072,19.0693285 C17.7740999,18.9458711 17.7740999,18.5046453 17.905072,18.381188 L18.2245087,18.3655908 C19.4290815,18.2954809 19.7707523,18.1016549 19.7961586,16.6659562 L19.7977268,8.10631645 C19.7977268,6.37147241 19.4273547,6.26733882 17.905072,6.20507338 C17.7740999,6.07946895 17.7740999,5.64039023 17.905072,5.51478581 L19.4922743,5.54792477 C19.7389386,5.55196229 19.9908235,5.55497321 20.269162,5.55653188 L20.709164,5.55772749 C21.818133,5.55772749 22.4697731,5.53518311 23.5347269,5.51478581 Z M75.7239029,5.47291766 C75.7738226,5.47291766 75.7983798,5.48499501 75.8075385,5.50869681 L75.8519261,5.74078168 C75.9535487,6.3069558 76.199256,7.84205559 76.2896596,8.56257185 C76.0760247,8.66026418 75.840919,8.70535295 75.5725334,8.66777898 L75.3889943,8.13549259 C74.9817382,7.02367461 74.5322711,6.39294325 73.1151955,6.39294325 L70.8339186,6.39294325 C70.3121771,6.39294325 70.0513064,6.80947759 70.0513064,7.30974821 L70.0513064,11.4869005 L72.0287709,11.4869005 C73.8817046,11.4890476 73.9461171,11.2174415 74.0116032,10.0687514 C74.1436489,9.94422054 74.5988307,9.94422054 74.7308764,10.0687514 L74.7004147,10.9357709 C74.6949575,11.1235513 74.6907528,11.3159241 74.688556,11.5285947 L74.6868612,11.8647874 C74.6868612,12.5743987 74.7094056,12.9716093 74.7308764,13.703765 C74.5988307,13.8272223 74.1436489,13.8272223 74.0116032,13.703765 L73.9849896,13.3850992 C73.9049653,12.6548405 73.6598679,12.2823953 72.0330651,12.2823953 L70.0556005,12.2823953 L70.0556005,17.3151607 C70.0556005,17.8787703 70.3583394,18.2126419 70.8382127,18.2126419 L73.7947477,18.2126419 C75.446929,18.2126419 76.2059233,16.9812891 76.6407078,15.4772566 C76.9273436,15.4096234 77.1753318,15.4547122 77.4018492,15.5813901 C77.2290089,16.6463439 76.9015786,18.024772 76.5977661,19.0682549 L74.5056473,19.031703 C74.2607079,19.0290921 74.0240563,19.0274603 73.815145,19.0274603 L68.7666614,19.0323554 C68.1907045,19.0399923 67.0742207,19.055219 66.3143063,19.0682549 C66.1844077,18.9447976 66.1844077,18.5046453 66.3143063,18.3790409 L66.7801058,18.3545571 C67.9140961,18.2735157 68.2058875,18.0200007 68.2058875,16.4788713 L68.2058875,8.10416937 L68.19949,7.74506656 C68.1448502,6.35519551 67.7238273,6.2615735 66.3143063,6.2029263 C66.1844077,6.07839541 66.1844077,5.63931669 66.3143063,5.51478581 L69.0726419,5.55506943 L69.0726419,5.55506943 L74.6600226,5.55558041 C75.1806906,5.55558041 75.3546044,5.53410956 75.7239029,5.47291766 Z M88.6214377,6.39401679 L85.9461708,6.39401679 C85.3600168,6.39401679 85.1420878,6.68709379 85.0991461,7.20883525 C84.9230852,9.31834549 84.5774046,11.4890476 84.3165339,12.9093438 L84.0846892,14.0477371 C83.6788859,15.9715789 83.2955953,17.4893751 83.2955953,17.8572994 C83.2955953,18.1063612 83.5790105,18.2126419 83.8828229,18.2126419 L88.6429086,18.2126419 C89.16465,18.2126419 89.4255208,18.1482293 89.4255208,17.3774261 L89.4255208,7.20668817 C89.4255208,6.55934228 89.2945486,6.39401679 88.6214377,6.39401679 Z M7.11275323,9.26359485 L5.11381783,9.26359485 L5.11381783,16.1439262 C5.11381783,17.1154818 5.49170465,18.1160231 7.51855215,18.1160231 C11.924369,18.1160231 12.7348932,16.3232077 12.7348932,14.17505 C12.7348932,11.5287687 11.0827119,9.26359485 7.11275323,9.26359485 Z M112.40791,1.05958606 L112.106854,1.06516679 C110.524966,1.12489764 108.58288,1.69551337 108.58288,4.26410925 C108.58288,7.38060199 110.379989,8.38114323 112.784723,8.38114323 L115.04453,8.38114323 L115.04453,2.11917212 C115.04453,1.14654297 114.929661,1.05958606 112.40791,1.05958606 Z M7.63664178,1.00054124 L7.16516785,1.00457681 C5.11489137,1.04277201 5.11489137,1.35946216 5.11489137,2.26624739 L5.11381783,8.26412714 L7.25875496,8.26412714 C9.66348928,8.26412714 11.3736419,7.38060199 11.3736419,4.8824695 C11.3736419,1.88191931 9.25876391,1.00054124 7.63664178,1.00054124 Z" id="wikipedia-wordmark-uk" fill="#000000" fill-rule="nonzero"></path>
    </g>
</svg>

<svg xmlns="http://www.w3.org/2000/svg" width="120" height="22"><path fill="#000" fill-rule="nonzero" d="m92.836 5.52.044.04v.396c0 .125-.086.161-.174.167l-.631.04c-.651.044-.787.28-.802.922L91.27 17.4c0 .718.422.967.788 1.049l.084.016c.47.078.638.148.651.397l.152 3.09-.514.012c-.074.005-.074.001-.074.001l-.072-.282c-.319-1.15-1.11-2.652-2.71-2.652h-6.303c-1.806 0-2.37 1.858-2.61 2.943l-.587-.021.152-3.09c.016-.25.243-.367.458-.398l.305-.05c.292-.055.546-.14.782-.368.567-.544.957-2.047 1.652-5.304l.16-.83c.375-2.046.58-3.856.58-5.016 0-.439-.197-.655-.762-.71l-.652-.063c-.11 0-.173-.042-.173-.125V5.56l.043-.04 1.778.037.27.002 6.2-.002c.774-.01 1.967-.038 1.967-.038ZM120 .028v.617c0 .117-.059.204-.202.204l-.87.06-.339.031c-.94.107-1.198.364-1.198 1.263v14.675c0 .834.337 1.17 1.375 1.278l.973.078a.23.23 0 0 1 .232.234v.56l-.058.06-3.17-.058c-.177-.002-.34-.002-.481-.002l-1.966.024c-.926.017-1.771.036-1.771.036l-.06-.06v-.56c0-.147.088-.234.234-.234l.752-.061c1.219-.093 1.594-.47 1.594-1.295V9.498c-2.896 0-3.577.758-4.665 3.459l-.435 1.101c-1.152 2.89-2.215 4.97-4.144 5l-1.913.027-.027-.059v-.559l-.002-.001.007-.066c.019-.084.072-.14.14-.159l.316-.037c.9-.112 2.278-1.622 3.719-5.297l.135-.35c.726-1.912 1.594-2.648 2.378-3.117v-.088c-1.972-.293-4.318-1.765-4.318-4.765l.005-.25c.083-1.981 1.2-4.308 6.37-4.308l3.372.028L120 .03ZM7.49 0c5.39 0 6.23 2.558 6.23 4.527 0 1.599-1.3 3.108-2.752 3.854v.06c2.522.736 4.463 2.351 4.463 5.176 0 2.527-1.538 5.472-7.304 5.472l-1.573-.01c-1.26-.017-1.722-.05-2.657-.05l-.907.004c-.984.009-1.756.031-2.86.056-.173-.177-.173-.796 0-.972l.363-.018c1.726-.097 2.16-.37 2.16-2.658V3.647l-.007-.431C2.585 1.189 2.033 1.054.13.97-.043.795-.043.177.13.001L2 .041c.572.011 1.144.02 1.869.02C5.114.058 6.475 0 7.489 0Zm55.977 5.52c.132.123.132.562 0 .687l-.319.016c-1.254.073-1.572.28-1.572 1.885v8.375l.006.36c.055 1.388.478 1.483 1.885 1.541.132.124.132.564 0 .689l-1.725-.034a79.268 79.268 0 0 0-1.1-.007l-.841.005c-.644.007-1.187.023-1.962.036-.131-.124-.131-.564 0-.689l.32-.015c1.204-.07 1.544-.264 1.57-1.7l.001-8.727c0-1.294-.476-1.544-1.001-1.544h-4.282c-.521 0-1 .248-1 1.544v8.541l.006.36c.055 1.388.476 1.483 1.885 1.541.131.124.131.564 0 .689l-1.586-.032c-.37-.006-.752-.01-1.218-.01l-.759.005c-.7.007-1.268.023-2.066.037-.131-.124-.131-.564 0-.689l.32-.015c1.204-.07 1.544-.264 1.57-1.7l.001-8.56c0-1.733-.369-1.838-1.891-1.902-.131-.124-.131-.563 0-.688l2.676.04H61c.627-.006 1.564-.024 2.467-.04ZM36.32 5.434c1.15 0 1.543.606 1.543 1.086 0 .606-.5.836-.956.836-.284 0-.587-.104-.804-.313-.24-.231-.415-.337-.695-.337-.565 0-.754.52-.867 1.051l-.116.592c-.26 1.25-.771 2.793-2.28 3.328v.105c1.428 0 2.266.814 2.849 2.155l.086.205c1.132 2.818 2.238 4.24 3 4.3l.347.023c.108 0 .173.063.173.165v.398l-.023.04-1.717-.021c-1.571-.02-2.357-1.472-3.208-3.51l-.37-.898c-.75-1.778-1.26-2.378-3.573-2.378v5.284c0 .583.285.784 1.028.861l.732.056c.086 0 .173.064.173.166v.397l-.044.041-.719-.023a54.436 54.436 0 0 0-1.299-.017h-1.596l-.641.005c-.422.006-.845.016-1.352.035l-.044-.04.001-.396c0-.104.067-.166.152-.166l.588-.04c.913-.067 1.174-.294 1.174-.877V7.044c0-.627-.327-.815-1.174-.879l-.565-.04c-.087 0-.174-.064-.174-.167v-.396l.044-.04 1.6.03c.25.005.504.007.784.009l.442.001c1.086 0 1.717-.021 2.782-.04l.044.04v.396c0 .106-.065.168-.174.168l-.563.04c-.87.066-1.196.292-1.196.878v4.342c.783 0 1.76-.021 2.282-.312 1.212-.631 1.551-1.86 1.749-2.978l.033-.196c.218-1.293.827-2.465 2.544-2.465Zm64.996.08c.13.124.13.563 0 .69l-.32.015c-1.204.07-1.545.263-1.57 1.7l-.002 8.56c0 1.734.37 1.84 1.892 1.901.13.123.13.564 0 .688l-1.586-.03c-.37-.007-.752-.01-1.217-.01l-.76.003c-.701.007-1.268.023-2.067.037-.13-.123-.13-.564 0-.688l.32-.015c1.255-.073 1.572-.28 1.572-1.886V8.106l-.006-.359c-.055-1.39-.476-1.484-1.886-1.542-.13-.126-.13-.565 0-.69l1.587.033c.246.004.498.007.776.009h.44c1.11 0 1.762-.022 2.827-.042Zm-54.652 0c.13.124.13.563 0 .69l-.32.015c-1.204.07-1.545.263-1.57 1.7l-.002 8.56c.003 1.734.371 1.84 1.892 1.901.13.123.13.564 0 .688l-1.587-.03c-.37-.007-.752-.01-1.217-.01l-.76.003c-.7.007-1.267.023-2.065.037-.131-.123-.131-.564 0-.688l.319-.015c1.205-.07 1.546-.264 1.572-1.7l.001-8.56c0-1.735-.37-1.839-1.892-1.9-.131-.127-.131-.566 0-.691l1.587.033c.246.004.498.007.777.009h.44c1.109 0 1.76-.022 2.825-.042Zm-23.13 0c.132.124.132.563 0 .69l-.319.015c-1.204.07-1.546.263-1.571 1.7l-.002 8.56c.001 1.734.372 1.84 1.893 1.901.13.123.13.564 0 .688l-1.587-.03c-.37-.007-.752-.01-1.217-.01l-.76.003c-.701.007-1.267.023-2.066.037-.13-.123-.13-.564 0-.688l.32-.015c1.204-.07 1.546-.264 1.571-1.7l.002-8.56c0-1.735-.37-1.839-1.893-1.9-.13-.127-.13-.566 0-.691l1.587.033c.247.004.499.007.777.009h.44c1.11 0 1.76-.022 2.826-.042Zm52.19-.042c.05 0 .074.012.084.036l.044.232c.102.566.347 2.101.438 2.822a1.26 1.26 0 0 1-.717.105l-.184-.533c-.407-1.111-.857-1.742-2.274-1.742h-2.281c-.522 0-.783.416-.783.917v4.177h1.978c1.853.002 1.917-.27 1.983-1.418.132-.125.587-.125.719 0l-.03.867c-.006.188-.01.38-.012.593l-.002.336c0 .71.022 1.107.044 1.839-.132.123-.587.123-.72 0l-.026-.319c-.08-.73-.325-1.103-1.952-1.103h-1.977v5.033c0 .564.302.898.782.898h2.957c1.652 0 2.41-1.232 2.846-2.736.286-.067.534-.022.76.104a32.25 32.25 0 0 1-.803 3.487l-2.092-.036a66.414 66.414 0 0 0-.69-.005l-5.05.005c-.575.008-1.692.023-2.452.036-.13-.123-.13-.563 0-.689l.466-.024c1.134-.081 1.426-.335 1.426-1.876V8.104l-.007-.359c-.054-1.39-.475-1.483-1.885-1.542-.13-.125-.13-.564 0-.688l2.759.04h5.587c.52 0 .695-.02 1.064-.082Zm12.897.921h-2.675c-.586 0-.804.293-.847.815-.176 2.11-.522 4.28-.782 5.7l-.232 1.139c-.406 1.924-.79 3.441-.79 3.81 0 .248.284.355.588.355h4.76c.522 0 .783-.065.783-.836V7.207c0-.648-.131-.813-.805-.813ZM7.113 9.264h-2v6.88c0 .971.379 1.972 2.406 1.972 4.405 0 5.216-1.793 5.216-3.94 0-2.647-1.652-4.912-5.622-4.912ZM112.408 1.06l-.301.005c-1.582.06-3.524.63-3.524 3.2 0 3.116 1.797 4.116 4.202 4.116h2.26V2.12c0-.972-.115-1.06-2.637-1.06ZM7.637 1l-.472.005c-2.05.038-2.05.354-2.05 1.261l-.001 5.998h2.145c2.404 0 4.115-.883 4.115-3.382 0-3-2.115-3.881-3.737-3.881Z"/></svg>
